X:1
T:Title
%%score { ( 1 4 ) | ( 2 3 ) }
L:1/8
Q:1/4=100
M:4/4
K:A
V:1 treble nm="Grand Piano"
V:4 treble 
V:2 bass 
V:3 bass 
V:1
 [CA]2 A2 AGFG | A2[K:bass] E,E, A,2 E,2 | B2 B2 cBAB | c2[K:bass] E,E, A,2 E,2 | [CA]2 A2 AGFG | %5
w: G.~F.~Root * * * * *|||||
 A2[K:bass] E,E, A,2 E,2 | B2 B2 cBAG |[M:3/4] [CA]6 |[M:1/4] E2 |[M:4/4] A2 A,2 B2 E,2 | %10
w: |||||
 c6[K:bass][K:treble] z2 | d2 E,2 c2 E,2 | B6[K:bass] [E,E]2 | [A,CA]2 A,,2[K:treble] B2 E,2 | %14
w: ||||
 c6[K:bass][K:treble] z2 | [Fd]2 [Fd]2 [Ec]2 [DB]2 |[M:3/4] [CA]6 |[M:1/4] [Acea]2 | %18
w: ||||
[M:4/4] [Bdg]2 [GBe]2 [EGBd]2 [GB]2 |[M:3/4] A6 |] %20
w: ||
V:2
 [A,,A,]2 [C,A,C]2 [E,B,D][E,B,D][E,B,D][E,B,D] | [A,C]2 z2 z4 | %2
 [E,G,E]2 [E,G,E]2 [E,A,E][E,G,E][E,F,E][E,G,E] | [A,E]2 z2 z4 | %4
 [A,,A,]2 [C,A,C]2 [E,B,D][E,B,D][E,B,D][E,B,D] | [A,C]2 z2 z4 | %6
 [E,G,E]2 [E,G,E]2 [E,A,E][E,G,D][E,A,C][E,B,D] |[M:3/4] z A,- A,4 |[M:1/4] E,2 | %9
[M:4/4] [A,C]2 z2 [E,G,E]2 z2 | E6 [A,E][A,E] | [E,B,E]2 z2 [E,A,E]2 z2 | [G,E]6 z2 | %13
 A,,2 z2 [E,G,E]2 z2 | [A,E]6 [A,,A,]2 | [D,A,]2 [D,A,]2 [E,A,]2 [E,G,]2 |[M:3/4] [A,,A,]6 | %17
[M:1/4] [A,,A,]2 |[M:4/4] [E,,E,]4 z2 [DE]2 |[M:3/4] z D CB, A,2 |] %20
V:3
 x8 | x8 | x8 | x8 | x8 | x8 | x8 |[M:3/4] .A,2 E,C, A,,2 |[M:1/4] x2 |[M:4/4] x8 | A,4 z4 | x8 | %12
 E,2 z2 z2 C,B,, | x8 | x8 | x8 |[M:3/4] x6 |[M:1/4] x2 |[M:4/4] z4 [E,,E,]4 |[M:3/4] [A,,,A,,]6 |] %20
V:4
 x8 | x2[K:bass] x6 | x8 | x2[K:bass] x6 | x8 | x2[K:bass] x6 | x8 |[M:3/4] x6 |[M:1/4] x2 | %9
[M:4/4] x8 | z2[K:bass] E,2 A,2[K:treble] Bc | x8 | z2[K:bass] E,2 E,D, z D | x4[K:treble] x4 | %14
 z2[K:bass] E,2 C,2[K:treble] [Ec]2 | x8 |[M:3/4] x6 |[M:1/4] x2 |[M:4/4] x8 | %19
[M:3/4] [CE]F ED C2 |] %20

